X: 1330
T: Charlie Kyle's 2nd Schottische
B: australian traditional tunes wiki
M:4/4
L:1/8
R: Schottische
Q: 1/4=100
K:D
V:1 
|:"D"a2b->af2(3afe|d>e (3fed B2A2|"D"F>A d>f "Bm"b>a f>d|1"A7"e2e2e4:|2"D"e2d2d2A2||
"D"F>A d>cd2A2|F>A d>cd2e>f|\\
"A7"g>f e>d "G"g2B2B2g2|
"D"f2A>AA2A>G|F>A d>cd2f>g|"D"a>b a>f "A7"e>d e>f|"D"d2d2d4||
% abcbook-tune_id 6342d53ac84c1660b7b5f71d


% abcbook-boost 0
% abcbook-tablature 
% abcbook-transpose 
% abcbook-lastupdated 1665324359439
% abcbook-soundfonts 
% abcbook-repeats 1
% NFF Book 2007

